zondicons/svg/credit-card.svg

<svg width="20px" height="20px" viewBox="0 0 20 20" version="1.1" xmlns="http://www.w3.org/2000/svg" xmlns:xlink="http://www.w3.org/1999/xlink"><title>credit-card</title><desc>Created with Sketch.</desc><defs></defs><g id="Page-1" stroke="none" stroke-width="1" fill="none" fill-rule="evenodd"><g id="credit-card" fill="#000000"><path d="M0,3.99406028 C0,2.8927712 0.898212381,2 1.99079514,2 L18.0092049,2 C19.1086907,2 20,2.89451376 20,3.99406028 L20,16.0059397 C20,17.1072288 19.1017876,18 18.0092049,18 L1.99079514,18 C0.891309342,18 0,17.1054862 0,16.0059397 L0,3.99406028 Z M2,4 L18,4 L18,16 L2,16 L2,4 Z M2,6 L18,6 L18,10 L2,10 L2,6 Z M4,12 L8,12 L8,14 L4,14 L4,12 Z" id="Combined-Shape"></path></g></g></svg>

<svg xmlns="http://www.w3.org/2000/svg" viewBox="0 0 20 20"><path d="M18 6V4H2v2h16zm0 4H2v6h16v-6zM0 4c0-1.1.9-2 2-2h16a2 2 0 0 1 2 2v12a2 2 0 0 1-2 2H2a2 2 0 0 1-2-2V4zm4 8h4v2H4v-2z"/></svg>
